assets/svg/javascript.svg

<?xml version="1.0" encoding="UTF-8"?>
<svg width="41px" height="41px" viewBox="0 0 41 41" version="1.1" xmlns="http://www.w3.org/2000/svg" xmlns:xlink="http://www.w3.org/1999/xlink">
    <title>javascript-s</title>
    <g id="Garage" stroke="none" stroke-width="1" fill="none" fill-rule="evenodd">
        <g id="Yard-/-Pricing-Copy-2" transform="translate(-657.000000, -3664.000000)" fill-rule="nonzero">
            <g id="Features" transform="translate(465.000000, 1330.000000)">
                <g id="Langs" transform="translate(150.000000, 2133.000000)">
                    <g id="Group-5" transform="translate(0.000000, 179.000000)">
                        <g id="javascript-s" transform="translate(42.000000, 22.000000)">
                            <polygon id="Path" fill="#F7DF1E" points="0 0 41 0 41 41 0 41"></polygon>
                            <path d="M10.6296296,34.1614362 L13.769786,32.2758753 C14.3755686,33.3416046 14.9266412,34.243316 16.248473,34.243316 C17.5155295,34.243316 18.3143601,33.7515204 18.3143601,31.8386233 L18.3143601,18.8296296 L22.1703704,18.8296296 L22.1703704,31.8927143 C22.1703704,35.8555135 19.8293051,37.6592593 16.4137752,37.6592593 C13.3291103,37.6592593 11.5385314,36.0740749 10.6296296,34.161113" id="Path" fill="#000000"></path>
                            <path d="M24.2962963,33.7337706 L27.4241641,31.9220115 C28.2475605,33.2672479 29.3177161,34.2554034 31.2109436,34.2554034 C32.8026486,34.2554034 33.8176516,33.4592577 33.8176516,32.3612062 C33.8176516,31.0435573 32.7750074,30.5768399 31.0188178,29.8084766 L30.0587079,29.3964151 C27.2871262,28.2162499 25.448597,26.7339194 25.448597,23.6044466 C25.448597,20.7220939 27.6437365,18.5259259 31.0738407,18.5259259 C33.5159992,18.5259259 35.2721237,19.3769873 36.5342105,21.6005481 L33.543251,23.5220084 C32.8846638,22.3417134 32.171443,21.8751259 31.0739057,21.8751259 C29.9488569,21.8751259 29.2353765,22.5888333 29.2353765,23.5220084 C29.2353765,24.6749754 29.9488569,25.1417576 31.5950656,25.8555301 L32.5553702,26.2672669 C35.8207303,27.667354 37.6592593,29.0946393 37.6592593,32.3062905 C37.6592593,35.7653216 34.9427653,37.6592593 31.2933482,37.6592593 C27.726206,37.6592593 25.4212154,35.9573962 24.2962963,33.7337706" id="Path" fill="#000000"></path>
                        </g>
                    </g>
                </g>
            </g>
        </g>
    </g>
</svg>

<svg width="41" height="41" xmlns="http://www.w3.org/2000/svg">
  <g fill-rule="nonzero" fill="none">
    <path fill="#F7DF1E" d="M0 0h41v41H0z"/>
    <path d="M10.63 34.161l3.14-1.885c.606 1.066 1.157 1.967 2.478 1.967 1.268 0 2.066-.491 2.066-2.404v-13.01h3.856v13.064c0 3.963-2.34 5.766-5.756 5.766-3.085 0-4.875-1.585-5.784-3.498M24.296 33.734l3.128-1.812c.824 1.345 1.894 2.333 3.787 2.333 1.592 0 2.607-.796 2.607-1.894 0-1.317-1.043-1.784-2.8-2.553l-.96-.412c-2.77-1.18-4.61-2.662-4.61-5.792 0-2.882 2.196-5.078 5.626-5.078 2.442 0 4.198.851 5.46 3.075l-2.99 1.921c-.66-1.18-1.373-1.647-2.47-1.647-1.125 0-1.839.714-1.839 1.647 0 1.153.714 1.62 2.36 2.334l.96.411c3.266 1.4 5.104 2.828 5.104 6.04 0 3.458-2.716 5.352-6.366 5.352-3.567 0-5.872-1.702-6.997-3.925" fill="#000"/>
  </g>
</svg>
